white-balance-sunny.svg

<svg fill="currentColor" viewBox="0 0 24 24"><path d="m3.55 19.09 1.41 1.41 1.8-1.79-1.42-1.42M12 6c-3.31 0-6 2.69-6 6s2.69 6 6 6 6-2.69 6-6c0-3.32-2.69-6-6-6m8 7h3v-2h-3m-2.76 7.71 1.8 1.79 1.41-1.41-1.79-1.8M20.45 5l-1.41-1.4-1.8 1.79 1.42 1.42M13 1h-2v3h2M6.76 5.39 4.96 3.6 3.55 5l1.79 1.81zM1 13h3v-2H1m12 9h-2v3h2"/></svg>

<svg  viewBox="0 0 24 24" fill="currentColor"><path  d="M3.55 19.09L4.96 20.5L6.76 18.71L5.34 17.29M12 6C8.69 6 6 8.69 6 12S8.69 18 12 18 18 15.31 18 12C18 8.68 15.31 6 12 6M20 13H23V11H20M17.24 18.71L19.04 20.5L20.45 19.09L18.66 17.29M20.45 5L19.04 3.6L17.24 5.39L18.66 6.81M13 1H11V4H13M6.76 5.39L4.96 3.6L3.55 5L5.34 6.81L6.76 5.39M1 13H4V11H1M13 20H11V23H13"/></svg>
